**kern	**kern
*staff2	*staff1
*clefF4	*clefF4
*k[b-e-]	*k[b-e-]
*M3/8	*M3/8
=229	=229
8r	16dLL
.	16B-
8r	16A
.	16G
(8AAA	16F
.	16EJJ
=230	=230
4DD)	(16FLL
.	16A
.	16d
.	16A
(32DDLLL	16F
32CC#	.
32DD	16AJJ
32EEJJJ)	.
=231	=231
4FF'	16dLL
.	16A
.	16F
.	16A
8DD'	16d
.	16AJJ)
*	*clefG2
=232	=232
4EE'	(16GLL
.	16A
.	16c#
.	16A
*clefG2	*
8g#	16G
.	16AJJ
=233	=233
4a	16c#LL
.	16A
.	16G
.	16A
*clefF4	*
(8AAA	16c#
.	16AJJ)
=234	=234
4EE)	(16GLL
.	16A
.	16c#
.	16A
(32EELLL	16G
32DD	.
32EE	16AJJ
32FFJJJ)	.
=235	=235
4GG'	16c#LL
.	16A
.	16G
.	16A
8EE'	16c#
.	16AJJ)
=236	=236
4FF'	(16dLL
.	16A
.	16F
.	16A
*clefG2	*
(8cc#	16d
.	16AJJ
=237	=237
4dd)	16FLL
.	16A
.	16d
.	16A
8r	16F
.	16AJJ)
*clefF4	*
=238	=238
4FF	(16e-LL
.	16c
.	16A
.	16c
*clefG2	*
(8dd	16e-
.	16cJJ
=239	=239
4ee-)	16ALL
.	16c
.	16e-
.	16c
8r	16A
.	16cJJ)
*clefF4	*
=240	=240
4FF	(16aLL
.	16e-
.	16c
.	16e-
*clefG2	*
(8gg#	16a
.	16e-JJ
=241	=241
8aa)	16cLL
.	16e-
8r	16a
.	16e-
(8bb	16c
.	16e-JJ)
=242	=242
8ccc)	(16aLL
.	16e-
8r	16c
.	16e-
(8ddd	16a
.	16e-JJ
=243	=243
8eee-)	16cLL
.	16e-
8r	16a
.	16e-
(8ddd	16c
.	16e-JJ)
=244	=244
8eee-)	(16aLL
.	16e-
8r	16c)
.	16cc'
8r	16a'
.	16e-'JJ
=245	=245
4.r	(16ee-LL
.	16cc
.	16a)
.	16aa'
.	16ee-'
.	16cc'JJ
=246	=246
4.r	(16cccLL
.	16aa
.	16ee-)
.	16eee-'
.	16ccc'
.	16aa'JJ
=247	=247
4.r	(16eee-LL
.	16ccc
.	16aa)
.	16eee-'
.	16ccc'
.	16aa'JJ
=248	=248
4.r	(16eee-LL
.	16ccc
.	16aa)
.	16eee-'
.	16ccc'
.	16aa'JJ
=249	=249
4.r	(16eee-LL
.	16ccc
.	16aa)
.	16eee-'
.	16ccc'
.	16aa'JJ
=250	=250
4.r	(16eee-LL
.	16ddd
.	16fff
.	16eee-
.	16ddd
.	16cccJJ
=251	=251
4.r	16bb-LL
.	16aa
.	16ccc
.	16bb-J
.	48aaLL
.	48bb-
.	48bbJJ
.	48cccLL
.	48ccc#
.	48dddJJJ)
=252	=252
4.r	(16eee-LL
.	16ddd
.	16fff
.	16eee-
.	16ddd
.	16cccJJ
=253	=253
4.r	16bb-LL
.	16aa
.	16ccc
.	16bb-J
.	48aaLL
.	48bb-
.	48bbJJ
.	48cccLL
.	48ccc#
.	48dddJJJ)
=254	=254
4.r	(16eee-LL
.	16ddd
.	16fff
.	16eee-
.	16ddd
.	16cccJJ
=255	=255
4.r	16bb-LL
.	16aa
.	16ccc
.	16bb
.	16ddd
.	16cccJJ
=256	=256
4.r	16bb-LL
.	16aa
.	16gg
.	16ff
.	16ee
.	16ffJJ
=257	=257
4.r	16ggLL
.	16ff
.	16ee-
.	16dd
.	16ff
.	16ee-JJ)
=258	=258
4.r	(16ddLL
.	16cc
.	16ee-
.	16dd
.	16cc
.	16b-JJ
=259	=259
4.r	16aLL
.	16b-
.	16b
.	16cc
.	16dd
.	16ccJJ
=260	=260
4.r	16b-LL
.	16a
.	16g
.	16f
.	16e
.	16fJJ
=261	=261
4.r	16gLL
.	16f
.	16e-
.	16d
.	16f
.	16e-JJ)
=262	=262
4.r	(16dLL
.	16c
.	16e-
.	16d
.	16c
.	16B-JJ
*	*clefF4
=263	=263
4.r	16ALL
.	16G
.	16F
.	16E
.	16G
.	16FJJ
=264	=264
4.r	16E-LL
.	16D
.	16F
.	16E-
.	16D
.	16CJJ
=265	=265
4.r	16BB-LL
.	16AA
.	16C
.	16BB-
.	16AA
.	16BB-JJ)
=266	=266
4.r	(16BBLL
.	16C
.	16C#
.	16D
.	16E-
.	16EJJ
=267	=267
4.r	16FLL
.	16F#
.	16G
.	16G#
.	16A
.	16B-JJ
*	*clefG2
=268	=268
4.r	16BLL
.	16c
.	16c#
.	16d
.	16e-
.	16eJJ
=269	=269
4.r	16fLL
.	16f#
.	16g
.	16a-
.	8aJJ)
=	=
*-	*-
